img/philosophy-icon.svg

<svg width="100" height="100" viewBox="0 0 100 100" fill="none" xmlns="http://www.w3.org/2000/svg">
<g clip-path="url(#clip0_136_2906)">
<path d="M99.4278 37.2764L62.7237 0.572315C61.9606 -0.190771 60.7239 -0.190771 59.961 0.572315L46.917 13.6163C46.1541 14.3792 46.1541 15.6159 46.917 16.3788C47.6799 17.1411 48.9158 17.1411 49.6795 16.3788L61.3129 4.74478C79.4242 24.3125 78.9764 54.9661 59.9617 73.9807C54.2664 79.676 46.7002 82.8125 38.6574 82.8125C31.2692 82.8125 24.2836 80.1635 18.7805 75.3167L34.6832 59.4139C34.684 59.4131 34.684 59.4124 34.6848 59.4124L34.6871 59.4102L38.6582 55.4391L49.8772 66.6588C50.0584 66.8406 50.2738 66.9847 50.5109 67.0829C50.748 67.1811 51.0022 67.2315 51.2588 67.2311C51.5153 67.2314 51.7694 67.181 52.0064 67.0828C52.2433 66.9846 52.4586 66.8405 52.6397 66.6588C53.402 65.8967 53.402 64.66 52.6397 63.8971L27.4004 38.6573L38.9367 27.1202C39.6998 26.3579 39.6998 25.1211 38.9367 24.3583C38.1737 23.5954 36.9379 23.5954 36.175 24.3583L14.5918 45.9413L14.591 45.942C14.591 45.9428 14.5903 45.9428 14.5895 45.9434L0.57229 59.961C-0.190601 60.7239 -0.190601 61.9606 0.57229 62.7237L14.5875 76.7387C14.5891 76.7403 14.5906 76.7418 14.5914 76.7434C14.593 76.7442 14.5946 76.7458 14.5959 76.7473L37.2764 99.4278C37.4576 99.6095 37.673 99.7537 37.9102 99.8519C38.1473 99.9501 38.4015 100 38.6582 100C38.9147 100 39.1688 99.9499 39.4058 99.8517C39.6427 99.7535 39.858 99.6094 40.0391 99.4278L99.4278 40.0391C100.191 39.2762 100.191 38.0395 99.4278 37.2764ZM31.9244 48.7061C34.1119 50.8956 34.1125 54.4557 31.926 56.6459L31.9207 56.6522C30.8563 57.7141 29.1252 57.7141 28.0617 56.6499H28.061L18.8653 47.4541C20.5574 46.3038 22.5502 45.684 24.6383 45.684C27.3873 45.684 29.9729 46.7561 31.9207 48.7022L31.9244 48.7061ZM16.0492 50.1618L25.2983 59.411C25.299 59.4116 25.299 59.4116 25.299 59.4124C25.2998 59.4124 25.3006 59.4131 25.3014 59.4139L27.2301 61.3426L16.0492 72.5235C13.501 69.3596 12.1139 65.4571 12.1139 61.3426C12.1139 57.2282 13.501 53.3256 16.0492 50.1618ZM24.6383 41.42L25.0145 41.7961C24.7635 41.79 24.5125 41.79 24.2615 41.7961L24.6383 41.42ZM4.71585 61.3426L8.54202 57.5157C8.32131 58.767 8.20764 60.0463 8.20764 61.3426C8.20764 62.6389 8.32131 63.9184 8.54182 65.1688L4.71585 61.3426ZM38.6582 95.2852L28.5789 85.2061C31.8016 86.2018 35.1899 86.719 38.6574 86.719H38.6582C42.125 86.719 45.5139 86.2018 48.7373 85.2053L38.6582 95.2852ZM74.2608 59.6817C77.0463 53.1166 78.5117 45.9993 78.5117 38.6575C78.5117 31.3165 77.0469 24.1989 74.2608 17.634L95.285 38.6582L74.2608 59.6817Z" fill="#3391AC"/>
<path d="M42.9902 22.2576C43.508 22.2567 44.0044 22.0511 44.3711 21.6855C44.736 21.3184 44.9415 20.8223 44.9434 20.3047C44.9434 19.7904 44.7344 19.2869 44.3711 18.9238C44.004 18.5588 43.5079 18.3532 42.9902 18.3516C42.4726 18.3534 41.9765 18.559 41.6094 18.9238C41.2444 19.2909 41.0388 19.787 41.0371 20.3047C41.0371 20.8182 41.2461 21.3223 41.6094 21.6855C41.9761 22.051 42.4725 22.2565 42.9902 22.2576ZM57.2617 71.2811C57.625 70.9182 57.834 70.4139 57.834 69.9002C57.834 69.3865 57.625 68.8826 57.2617 68.5193C56.8946 68.1543 56.3985 67.9487 55.8809 67.9471C55.3632 67.9489 54.8672 68.1545 54.5 68.5193C54.1367 68.8826 53.9277 69.3869 53.9277 69.9002C53.9277 70.4135 54.1367 70.9182 54.5 71.2811C54.8629 71.6443 55.3672 71.8533 55.8809 71.8533C56.3945 71.8533 56.8984 71.6443 57.2617 71.2811Z" fill="#3391AC"/>
</g>
<defs>
<clipPath id="clip0_136_2906">
<rect width="100" height="100" fill="white"/>
</clipPath>
</defs>
</svg>

<svg width="100" height="100" fill="none" xmlns="http://www.w3.org/2000/svg"><g clip-path="url(#clip0_136_2906)" fill="#3391AC"><path d="M99.428 37.276L62.724.572c-.763-.763-2-.763-2.763 0L46.917 13.616a1.953 1.953 0 102.762 2.763L61.313 4.745c18.111 19.568 17.663 50.221-1.351 69.236-5.696 5.695-13.262 8.832-21.305 8.832-7.388 0-14.373-2.65-19.876-7.496l15.902-15.903.002-.002.002-.002 3.971-3.97 11.22 11.219a1.946 1.946 0 002.128.424 1.953 1.953 0 00.633-3.186L27.4 38.657 38.937 27.12a1.952 1.952 0 10-2.762-2.762L14.592 45.941l-.001.001-.002.001L.572 59.961c-.763.763-.763 2 0 2.763l14.015 14.015.004.004.005.004 22.68 22.68a1.947 1.947 0 002.13.425c.237-.099.452-.243.633-.424l59.389-59.389c.763-.763.763-2 0-2.763zm-67.504 11.43a5.624 5.624 0 01.002 7.94l-.005.006a2.733 2.733 0 01-3.86-.002l-9.196-9.196a10.224 10.224 0 015.773-1.77c2.75 0 5.335 1.072 7.283 3.018l.003.004zM16.05 50.162l9.25 9.249v.001l.002.002 1.93 1.929-11.182 11.18a17.732 17.732 0 01-3.935-11.18c0-4.115 1.387-8.017 3.935-11.181zm8.59-8.742l.376.376a15.494 15.494 0 00-.753 0l.376-.376zM4.715 61.343l3.826-3.827a22.022 22.022 0 000 7.653l-3.826-3.826zm33.942 33.942l-10.08-10.079a34.1 34.1 0 0010.08 1.513c3.467 0 6.856-.517 10.08-1.514l-10.08 10.08zM74.26 59.682c2.785-6.565 4.25-13.683 4.25-21.025 0-7.34-1.464-14.458-4.25-21.023l21.024 21.024L74.26 59.682z"/><path d="M42.99 22.258a1.96 1.96 0 001.381-.572c.365-.368.57-.864.572-1.381 0-.515-.209-1.018-.572-1.381a1.967 1.967 0 00-1.38-.572 1.969 1.969 0 00-1.382.572c-.365.367-.57.863-.572 1.38 0 .514.21 1.018.572 1.382.367.365.863.57 1.381.572zM57.262 71.28c.363-.363.572-.867.572-1.38 0-.514-.209-1.018-.572-1.382a1.967 1.967 0 00-1.381-.572 1.969 1.969 0 00-1.381.572 1.969 1.969 0 00-.572 1.381c0 .513.209 1.018.572 1.381s.867.572 1.38.572c.514 0 1.018-.209 1.382-.572z"/></g><defs><clipPath id="clip0_136_2906"><path fill="#fff" d="M0 0h100v100H0z"/></clipPath></defs></svg>
